src/view/frontend/web/svg/heroicons/outline/adjustments.svg

<svg  viewBox="0 0 24 24" fill="none" stroke="currentColor" xmlns="http://www.w3.org/2000/svg">
<path d="M12 6V4M12 6C10.8954 6 10 6.89543 10 8C10 9.10457 10.8954 10 12 10M12 6C13.1046 6 14 6.89543 14 8C14 9.10457 13.1046 10 12 10M6 18C7.10457 18 8 17.1046 8 16C8 14.8954 7.10457 14 6 14M6 18C4.89543 18 4 17.1046 4 16C4 14.8954 4.89543 14 6 14M6 18V20M6 14V4M12 10V20M18 18C19.1046 18 20 17.1046 20 16C20 14.8954 19.1046 14 18 14M18 18C16.8954 18 16 17.1046 16 16C16 14.8954 16.8954 14 18 14M18 18V20M18 14V4"  stroke-width="2" stroke-linecap="round" stroke-linejoin="round"/>
</svg>

<svg xmlns="http://www.w3.org/2000/svg" fill="none" viewBox="0 0 24 24" stroke="currentColor">
  <path stroke-linecap="round" stroke-linejoin="round" stroke-width="2" d="M12 6V4m0 2a2 2 0 100 4m0-4a2 2 0 110 4m-6 8a2 2 0 100-4m0 4a2 2 0 110-4m0 4v2m0-6V4m6 6v10m6-2a2 2 0 100-4m0 4a2 2 0 110-4m0 4v2m0-6V4"/>
</svg>
